Papirus-Light/22x22/animations/nm-vpn-connecting02.svg

<?xml version="1.0" encoding="UTF-8" standalone="no"?>
<svg xmlns="http://www.w3.org/2000/svg" version="1.1" width="22" height="22">
 <defs>
  <linearGradient x1="7" y1="12" gradientTransform="matrix(0.43366,-0.90108,-0.90108,-0.43366,16.609,27.017)" x2="19" gradientUnits="userSpaceOnUse" y2="5" id="linearGradient3605">
   <stop offset="0" stop-opacity=".5" stop-color="#5c616c"/>
   <stop offset="1" stop-opacity="0" stop-color="#5c616c"/>
  </linearGradient>
  <linearGradient x1="7" y1="12" gradientTransform="matrix(-0.43366,0.90108,0.90108,0.43366,5.3906,-5.0168)" x2="17" gradientUnits="userSpaceOnUse" y2="12" id="linearGradient3611">
   <stop offset="0" stop-color="#5c616c"/>
   <stop offset="1" stop-color="#5c616c" stop-opacity=".5"/>
  </linearGradient>
 </defs>
 <path d="M 11.341797 4.0058594 C 8.6166969 3.8738594 5.9506594 5.3521437 4.6933594 7.9648438 C 3.0168594 11.448044 4.4812437 15.631594 7.9648438 17.308594 L 8.8320312 15.505859 C 6.3438313 14.307859 5.2968406 11.320031 6.4941406 8.8320312 C 7.6916406 6.3438313 10.679969 5.2966406 13.167969 6.4941406 C 14.338969 7.0579406 15.207156 5.2571594 14.035156 4.6933594 C 13.164156 4.2741594 12.249797 4.0498594 11.341797 4.0058594 z" style="fill:url(#linearGradient3611)"/>
 <path d="M 14.035156 4.6933594 L 13.167969 6.4941406 C 14.957044 7.3553568 15.973351 9.1425587 15.970703 11.003906 C 15.980749 11.003804 15.98993 11 16 11 C 16.741614 11 17.408976 11.287156 17.929688 11.742188 C 18.236175 8.8819209 16.775791 6.0122782 14.035156 4.6933594 z M 8.8320312 15.505859 L 7.9648438 17.308594 C 9.2698311 17.936154 10.667342 18.095975 12 17.900391 L 12 15.865234 C 10.964104 16.08183 9.859077 16.000012 8.8320312 15.505859 z" style="fill:url(#linearGradient3605)"/>
 <path d="m16 12c-1.108 0-2 .91085-2 2.0312v.96875h-1v4h6v-4h-1v-.96875c0-1.12-.892-2.031-2-2.031zm0 1c.554 0 1 .4424 1 1v1h-2v-1c0-.5576.446-1 1-1z" fill="#5c616c"/>
</svg>

<?xml version="1.0" encoding="UTF-8" standalone="no"?>
<svg width="22" xmlns="http://www.w3.org/2000/svg" version="1.1" height="22">
 <defs>
  <linearGradient id="linearGradient3605" x1="7" gradientUnits="userSpaceOnUse" x2="19" gradientTransform="matrix(.43366 -.90108 -.90108 -.43366 16.609 27.017)" y1="12" y2="5">
   <stop stop-opacity=".5" stop-color="#5c616c" offset="0"/>
   <stop stop-opacity="0" stop-color="#5c616c" offset="1"/>
  </linearGradient>
  <linearGradient id="linearGradient3611" x1="7" gradientUnits="userSpaceOnUse" x2="17" gradientTransform="matrix(-.43366 .90108 .90108 .43366 5.3906 -5.0168)" y1="12" y2="12">
   <stop stop-color="#5c616c" offset="0"/>
   <stop stop-color="#5c616c" stop-opacity=".5" offset="1"/>
  </linearGradient>
 </defs>
 <path style="fill:url(#linearGradient3611)" d="m11.342 4.0059c-2.7253-0.132-5.3913 1.3462-6.6486 3.9589-1.6765 3.4832-0.2122 7.6672 3.2714 9.3442l0.8672-1.803c-2.4882-1.198-3.5352-4.186-2.3379-6.674 1.1975-2.4882 4.1859-3.5354 6.6739-2.3379 1.171 0.5638 2.039-1.2369 0.867-1.8007-0.871-0.4192-1.785-0.6435-2.693-0.6875z"/>
 <path style="fill:url(#linearGradient3605)" d="m14.035 4.6934l-0.867 1.8007c1.789 0.8613 2.805 2.6485 2.803 4.5099 0.01 0 0.019-0.004 0.029-0.004 0.742 0 1.409 0.287 1.93 0.742 0.306-2.8601-1.154-5.7297-3.895-7.0486zm-5.203 10.813l-0.8672 1.803c1.305 0.627 2.7022 0.787 4.0352 0.591v-2.035c-1.036 0.217-2.1409 0.135-3.168-0.359z"/>
 <path d="m16 12c-1.108 0-2 0.91085-2 2.0312v0.96875h-1v4h6v-4h-1v-0.96875c0-1.12-0.892-2.031-2-2.031zm0 1c0.554 0 1 0.4424 1 1v1h-2v-1c0-0.5576 0.446-1 1-1z" fill="#5c616c"/>
</svg>
